X:32
T:Blarney Pilgrim, The
S:Session
R:Jig
O:Ireland
M:6/8
K:DMix
P:A
DED DEG|A2G ABc|BAG AGE|GEA GED|\
DED DEG|A2G ABc|BAG AGE|GED D3::
P:B
d2e dBG|AGA BGE|d2e dBG|AGA G3|\
g2e dBG|AGA BGE|AGA BGE|GED D3::
P:C
A2D B2D|A2D ABc|BAG AGE|GEA GED|\
A2D B2D|A2D ABc|BAG AGE|GED D3:|
